X: 36
T:The Biuhterh Pic-J
% Nottingham Music Database
S:Arre Rcrlleter Hnalhon
% Nottingham Music Database
S:Tra, arr Phil Rowe
M:6/8
K:D
"G"BBG B2B|"G"BAG GFC|"D"A2F FFF|"Gb"D2F "Em"AGG:
P:B
B|dBd dcd|\
K:FC
|eoB ecA|fAB BAA|\
PPAV BAB0|BAcc efc|d2c d2D||


